build/redact/AlignMiddleOutline.svg

<svg xmlns="http://www.w3.org/2000/svg" fill="none" viewBox="0 0 24 24" focusable="false"><path d="M0 0H24V24H0z"/><path fill="#74767B" fill-rule="evenodd" d="M11.3517 7.97133L11.3517 2.64923C11.3517 2.29067 11.6422 2 12.0007 2C12.3591 2 12.6496 2.29067 12.6496 2.64923L12.6496 7.97035L15.0993 5.51961C15.3527 5.26607 15.7636 5.26607 16.0171 5.51961C16.2705 5.77315 16.2705 6.18422 16.0171 6.43776L12.459 9.99728C12.2056 10.2508 11.7947 10.2508 11.5413 9.99728L7.98328 6.43776C7.72985 6.18422 7.72985 5.77315 7.98328 5.51961C8.23671 5.26607 8.6476 5.26607 8.90103 5.51961L11.3517 7.97133ZM12.459 14.0027L16.0171 17.5622C16.2705 17.8158 16.2705 18.2269 16.0171 18.4804C15.7636 18.7339 15.3527 18.7339 15.0993 18.4804L12.6486 16.0287L12.6486 21.3508C12.6486 21.7093 12.3581 22 11.9997 22C11.6413 22 11.3507 21.7093 11.3507 21.3508L11.3507 16.0296L8.90103 18.4804C8.6476 18.7339 8.23671 18.7339 7.98328 18.4804C7.72985 18.2269 7.72985 17.8158 7.98328 17.5622L11.5413 14.0027C11.7947 13.7492 12.2056 13.7492 12.459 14.0027ZM19.3511 12.6882C19.7095 12.6882 20 12.3975 20 12.039C20 11.6804 19.7095 11.3897 19.3511 11.3897L4.64895 11.3897C4.29054 11.3897 4 11.6804 4 12.039C4 12.3975 4.29054 12.6882 4.64895 12.6882L19.3511 12.6882Z"/></svg>

<svg xmlns="http://www.w3.org/2000/svg" fill="none" viewBox="0 0 24 24" focusable="false"><path fill="#74767B" fill-rule="evenodd" d="M11.35 7.97V2.64a.644.644 0 0 1 1.29 0v5.33l2.45-2.46c.26-.25.67-.25.92 0 .26.26.26.67 0 .92l-3.56 3.56c-.25.26-.66.26-.91 0L7.98 6.43a.64.64 0 0 1 0-.92c.25-.25.66-.25.92 0zm1.1 6.03 3.56 3.56c.26.25.26.66 0 .92-.25.25-.66.25-.92 0l-2.45-2.46v5.33c0 .35-.29.65-.65.65-.35 0-.64-.3-.64-.65v-5.33L8.9 18.48c-.26.25-.67.25-.92 0a.64.64 0 0 1 0-.92L11.54 14c.25-.26.66-.26.91 0m6.9-1.32c.35 0 .65-.29.65-.65 0-.35-.3-.65-.65-.65H4.64c-.35 0-.64.3-.64.65 0 .36.29.65.64.65z"/></svg>
